X:1
L:1/8
M:2/2
K:G
 (3(DEF | G2) [GB]2 G2 [GB]2 | A2 A2 AcBA | G2 [GB]2 G2 [GB]2 | AGEF D2 (3(DEF | 
 G2) [GB]2 G2 [GB]2 | A2 A2 AcBA | B2 dB ABGA | B2 G2 G2 :: ef | g2 b2 b2 ag | e2 a2 a2 e2 | 
 d2 ef gage | dBAB G2 :|
